polaris-icons/icons/new-icons/TextBlockMajor.svg

<svg width="20" height="20" viewBox="0 0 20 20" fill="none" xmlns="http://www.w3.org/2000/svg">
<path d="M7.25 6.5C6.83579 6.5 6.5 6.83579 6.5 7.25C6.5 7.66421 6.83579 8 7.25 8H12.75C13.1642 8 13.5 7.66421 13.5 7.25C13.5 6.83579 13.1642 6.5 12.75 6.5H7.25Z" fill="#4A4A4A"/>
<path d="M6.5 10C6.5 9.58579 6.83579 9.25 7.25 9.25H12.75C13.1642 9.25 13.5 9.58579 13.5 10C13.5 10.4142 13.1642 10.75 12.75 10.75H7.25C6.83579 10.75 6.5 10.4142 6.5 10Z" fill="#4A4A4A"/>
<path d="M7.25 12C6.83579 12 6.5 12.3358 6.5 12.75C6.5 13.1642 6.83579 13.5 7.25 13.5H10.75C11.1642 13.5 11.5 13.1642 11.5 12.75C11.5 12.3358 11.1642 12 10.75 12H7.25Z" fill="#4A4A4A"/>
<path fill-rule="evenodd" clip-rule="evenodd" d="M7.25 3.5C5.17893 3.5 3.5 5.17893 3.5 7.25V12.75C3.5 14.8211 5.17893 16.5 7.25 16.5H12.75C14.8211 16.5 16.5 14.8211 16.5 12.75V7.25C16.5 5.17893 14.8211 3.5 12.75 3.5H7.25ZM5 7.25C5 6.00736 6.00736 5 7.25 5H12.75C13.9926 5 15 6.00736 15 7.25V12.75C15 13.9926 13.9926 15 12.75 15H7.25C6.00736 15 5 13.9926 5 12.75V7.25Z" fill="#4A4A4A"/>
</svg>

<svg viewBox="0 0 20 20" xmlns="http://www.w3.org/2000/svg"><path d="M7.25 6.5a.75.75 0 0 0 0 1.5h5.5a.75.75 0 0 0 0-1.5h-5.5Z" fill="#5C5F62"/><path d="M6.5 10a.75.75 0 0 1 .75-.75h5.5a.75.75 0 0 1 0 1.5h-5.5a.75.75 0 0 1-.75-.75Z" fill="#5C5F62"/><path d="M7.25 12a.75.75 0 0 0 0 1.5h3.5a.75.75 0 0 0 0-1.5h-3.5Z" fill="#5C5F62"/><path fill-rule="evenodd" d="M7.25 3.5a3.75 3.75 0 0 0-3.75 3.75v5.5a3.75 3.75 0 0 0 3.75 3.75h5.5a3.75 3.75 0 0 0 3.75-3.75v-5.5a3.75 3.75 0 0 0-3.75-3.75h-5.5Zm-2.25 3.75a2.25 2.25 0 0 1 2.25-2.25h5.5a2.25 2.25 0 0 1 2.25 2.25v5.5a2.25 2.25 0 0 1-2.25 2.25h-5.5a2.25 2.25 0 0 1-2.25-2.25v-5.5Z" fill="#5C5F62"/></svg>
